svg/device/server_2_fill.svg

<?xml version="1.0" encoding="UTF-8"?>
<svg width="24px" height="24px" viewBox="0 0 24 24" version="1.1" xmlns="http://www.w3.org/2000/svg" xmlns:xlink="http://www.w3.org/1999/xlink">
    <title>server_2_fill</title>
    <g id="页面-1" stroke="none" stroke-width="1" fill="none" fill-rule="evenodd">
        <g id="Device" transform="translate(-528.000000, -240.000000)" fill-rule="nonzero">
            <g id="server_2_fill" transform="translate(528.000000, 240.000000)">
                 <path d="M24,0 L24,24 L0,24 L0,0 L24,0 Z M12.5934901,23.257841 L12.5819402,23.2595131 L12.5108777,23.2950439 L12.4918791,23.2987469 L12.4918791,23.2987469 L12.4767152,23.2950439 L12.4056548,23.2595131 C12.3958229,23.2563662 12.3870493,23.2590235 12.3821421,23.2649074 L12.3780323,23.275831 L12.360941,23.7031097 L12.3658947,23.7234994 L12.3769048,23.7357139 L12.4804777,23.8096931 L12.4953491,23.8136134 L12.4953491,23.8136134 L12.5071152,23.8096931 L12.6106902,23.7357139 L12.6232938,23.7196733 L12.6232938,23.7196733 L12.6266527,23.7031097 L12.609561,23.275831 C12.6075724,23.2657013 12.6010112,23.2592993 12.5934901,23.257841 L12.5934901,23.257841 Z M12.8583906,23.1452862 L12.8445485,23.1473072 L12.6598443,23.2396597 L12.6498822,23.2499052 L12.6498822,23.2499052 L12.6471943,23.2611114 L12.6650943,23.6906389 L12.6699349,23.7034178 L12.6699349,23.7034178 L12.678386,23.7104931 L12.8793402,23.8032389 C12.8914285,23.8068999 12.9022333,23.8029875 12.9078286,23.7952264 L12.9118235,23.7811639 L12.8776777,23.1665331 C12.8752882,23.1545897 12.8674102,23.1470016 12.8583906,23.1452862 L12.8583906,23.1452862 Z M12.1430473,23.1473072 C12.1332178,23.1423925 12.1221763,23.1452606 12.1156365,23.1525954 L12.1099173,23.1665331 L12.0757714,23.7811639 C12.0751323,23.7926639 12.0828099,23.8018602 12.0926481,23.8045676 L12.108256,23.8032389 L12.3092106,23.7104931 L12.3186497,23.7024347 L12.3186497,23.7024347 L12.3225043,23.6906389 L12.340401,23.2611114 L12.337245,23.2485176 L12.337245,23.2485176 L12.3277531,23.2396597 L12.1430473,23.1473072 Z" id="MingCute" fill-rule="nonzero"></path>
                <path d="M16.2803,3 C17.704172,3 18.9228958,3.99898675 19.2147924,5.37639758 L19.2464,5.5505 L20.9535,16.851 C20.9842,17.0629 21,17.2796 21,17.5 C21,19.9142914 19.0987811,21.8844901 16.7118372,21.9951021 L16.5,22 L7.5,22 C5.01472,22 3,19.9853 3,17.5 C3,17.3530667 3.00704444,17.2077778 3.02081037,17.0644296 L3.04646,16.8509 L4.75363,5.55054 C4.9669708,4.142652 6.13729182,3.0873313 7.54289622,3.00515826 L7.71977,3 L16.2803,3 Z M16.5,15 L7.5,15 C6.11929,15 5,16.1193 5,17.5 C5,18.825472 6.03153766,19.9100378 7.33562452,19.9946823 L7.5,20 L16.5,20 C17.8807,20 19,18.8807 19,17.5 C19,16.174528 17.9684531,15.0899622 16.6643744,15.0053177 L16.5,15 Z M16,16.5 C16.5523,16.5 17,16.9477 17,17.5 C17,18.0523 16.5523,18.5 16,18.5 L12,18.5 C11.4477,18.5 11,18.0523 11,17.5 C11,16.9477 11.4477,16.5 12,16.5 L16,16.5 Z M8,16.5 C8.55228,16.5 9,16.9477 9,17.5 C9,18.0523 8.55228,18.5 8,18.5 C7.44772,18.5 7,18.0523 7,17.5 C7,16.9477 7.44772,16.5 8,16.5 Z" id="形状" fill="#09244B"></path>
            </g>
        </g>
    </g>
</svg>

<svg xmlns="http://www.w3.org/2000/svg" width="24" height="24"><g fill="none" fill-rule="nonzero"><path d="M24 0v24H0V0h24ZM12.593 23.258l-.011.002-.071.035-.02.004-.014-.004-.071-.035c-.01-.004-.019-.001-.024.005l-.004.01-.017.428.005.02.01.013.104.074.015.004.012-.004.104-.074.012-.016.004-.017-.017-.427c-.002-.01-.009-.017-.017-.018Zm.265-.113-.013.002-.185.093-.01.01-.003.011.018.43.005.012.008.007.201.093c.012.004.023 0 .029-.008l.004-.014-.034-.614c-.003-.012-.01-.02-.02-.022Zm-.715.002a.023.023 0 0 0-.027.006l-.006.014-.034.614c0 .012.007.02.017.024l.015-.002.201-.093.01-.008.004-.011.017-.43-.003-.012-.01-.01-.184-.092Z"/><path fill="#09244B" d="M16.28 3a3 3 0 0 1 2.935 2.376l.031.175 1.707 11.3a4.5 4.5 0 0 1-4.242 5.144L16.5 22h-9a4.5 4.5 0 0 1-4.48-4.936l.026-.213 1.708-11.3a3 3 0 0 1 2.789-2.546L7.72 3h8.56Zm.22 12h-9a2.5 2.5 0 0 0-.164 4.995L7.5 20h9a2.5 2.5 0 0 0 .164-4.995L16.5 15Zm-.5 1.5a1 1 0 1 1 0 2h-4a1 1 0 1 1 0-2h4Zm-8 0a1 1 0 1 1 0 2 1 1 0 0 1 0-2Z"/></g></svg>
